dist/img/svg/skype.svg

<svg width="16" height="16" viewBox="0 0 16 16" fill="none" xmlns="http://www.w3.org/2000/svg">
<g clip-path="url(#clip0_1690_14154)">
<path d="M8.03336 12.8153C5.37548 12.8153 4.16113 11.4613 4.16113 10.4682C4.16077 10.2313 4.258 10.0047 4.42994 9.84175C4.60189 9.67877 4.83337 9.59381 5.06992 9.60685C6.20788 9.60685 5.91022 11.3138 8.03336 11.3138C9.11864 11.3138 9.75612 10.6605 9.75612 10.0468C9.75612 9.67797 9.54538 9.25651 8.82889 9.08792L6.45813 8.48996C4.55362 8.00527 4.22171 6.94633 4.22171 5.96379C4.22171 3.92493 6.08671 3.18736 7.86214 3.18736C9.49797 3.18736 11.442 4.09089 11.442 5.31314C11.442 5.83998 11.0021 6.12184 10.4911 6.12184C9.51904 6.12184 9.68236 4.75733 7.7278 4.75733C6.75579 4.75733 6.24476 5.21305 6.24476 5.85052C6.24476 6.48799 7.00077 6.70399 7.66458 6.84887L9.41367 7.244C11.3314 7.676 11.8424 8.80079 11.8424 9.87817C11.8424 11.5351 10.5595 12.8153 8.03073 12.8153H8.03336ZM15.3722 9.30919C15.4481 8.87428 15.486 8.43359 15.4854 7.9921C15.4947 5.77442 14.5203 3.66675 12.8248 2.23723C11.1293 0.807715 8.88732 0.20349 6.70311 0.587432C6.03176 0.200902 5.27033 -0.00172033 4.49567 1.10027e-05C2.90557 0.00972454 1.43989 0.861932 0.644842 2.23903C-0.1502 3.61613 -0.155344 5.31156 0.63133 6.69345C0.192372 9.10539 0.961295 11.5795 2.69008 13.3177C4.41886 15.056 6.88874 15.8384 9.30304 15.4126C9.97356 15.7988 10.734 16.0014 11.5078 16C13.0971 15.9898 14.5619 15.1379 15.3568 13.7616C16.1517 12.3854 16.1575 10.6909 15.3722 9.30919Z" fill="white"/>
</g>
<defs>
<clipPath id="clip0_1690_14154">
<rect width="16" height="16" fill="white"/>
</clipPath>
</defs>
</svg>

<svg width="16" height="16" viewBox="0 0 16 16" fill="none" xmlns="http://www.w3.org/2000/svg"><g clip-path="url(#clip0_1690_14154)"><path d="M8.033 12.815c-2.658 0-3.872-1.354-3.872-2.347a.861.861 0 01.909-.861c1.138 0 .84 1.707 2.963 1.707 1.086 0 1.723-.653 1.723-1.267 0-.369-.21-.79-.927-.96l-2.37-.597c-1.905-.485-2.237-1.544-2.237-2.526 0-2.04 1.865-2.777 3.64-2.777 1.636 0 3.58.904 3.58 2.126 0 .527-.44.809-.95.809-.973 0-.81-1.365-2.764-1.365-.972 0-1.483.456-1.483 1.094 0 .637.756.853 1.42.998l1.749.395c1.917.432 2.428 1.557 2.428 2.634 0 1.657-1.283 2.937-3.811 2.937h.002zm7.34-3.506a7.6 7.6 0 00.112-1.317A7.486 7.486 0 006.703.587 4.404 4.404 0 004.496 0 4.478 4.478 0 00.63 6.693a7.491 7.491 0 008.672 8.72c.67.386 1.431.588 2.205.587a4.478 4.478 0 003.864-6.69z" fill="#fff"/></g><defs><clipPath id="clip0_1690_14154"><path fill="#fff" d="M0 0h16v16H0z"/></clipPath></defs></svg>
